src/assets/social/youtube.svg

<svg height="18" viewBox="0 0 19 18" fill="none" xmlns="http://www.w3.org/2000/svg">
<path d="M14.8135 8.74249H3.60308C1.82118 8.74249 0.376709 10.1884 0.376709 11.97V14.5632C0.376709 16.3448 1.82118 17.7903 3.60308 17.7903H14.8135C16.595 17.7903 18.0398 16.3448 18.0398 14.5632V11.97C18.0398 10.1884 16.595 8.74249 14.8135 8.74249ZM5.95831 10.7614H4.91611V15.94H3.90919V10.7614H2.86771V9.88049H5.95831V10.7614ZM8.90235 15.94H8.00923V15.4502C7.84322 15.6314 7.67216 15.7696 7.49353 15.8629C7.31491 15.9602 7.14241 16.0055 6.97459 16.0055C6.76716 16.0055 6.61302 15.9396 6.50751 15.8057C6.40379 15.6721 6.35085 15.474 6.35085 15.2064V11.4694H7.24397V14.8989C7.24397 15.0047 7.26377 15.0807 7.29943 15.1279C7.33796 15.1765 7.39918 15.1988 7.48309 15.1988C7.54791 15.1988 7.63146 15.1679 7.73194 15.1052C7.83313 15.0418 7.92533 14.9626 8.00923 14.8646V11.469H8.90235V15.94ZM12.1449 15.017C12.1449 15.3328 12.0747 15.5755 11.9346 15.7448C11.7952 15.9141 11.5914 15.9972 11.3274 15.9972C11.1517 15.9972 10.9954 15.9656 10.8596 15.9C10.7231 15.8352 10.5946 15.7354 10.4775 15.5971V15.9396H9.57363V9.88049H10.4775V11.832C10.5985 11.697 10.7264 11.5922 10.86 11.522C10.9965 11.4503 11.1337 11.4157 11.2727 11.4157C11.5554 11.4157 11.7708 11.5101 11.9199 11.7006C12.0697 11.8911 12.1442 12.1702 12.1442 12.5361V15.017H12.1449ZM15.2431 13.8124H13.5339V14.6547C13.5339 14.8895 13.5627 15.053 13.6211 15.1441C13.6809 15.2356 13.7813 15.2802 13.9243 15.2802C14.0727 15.2802 14.1753 15.2417 14.2351 15.1646C14.2927 15.0868 14.3237 14.9176 14.3237 14.6547V14.4512H15.2431V14.6806C15.2431 15.1387 15.1318 15.4841 14.906 15.7171C14.6838 15.9479 14.3489 16.0624 13.9038 16.0624C13.503 16.0624 13.1871 15.9403 12.9577 15.6947C12.7291 15.4506 12.6124 15.1117 12.6124 14.681V12.6729C12.6124 12.2865 12.7399 11.9685 12.993 11.7247C13.2455 11.4809 13.5707 11.3592 13.9708 11.3592C14.3802 11.3592 14.6946 11.4719 14.9139 11.6981C15.1333 11.9246 15.2431 12.2487 15.2431 12.6726V13.8124Z" fill="#515151"/>
<path d="M13.933 12.1407C13.7903 12.1407 13.6888 12.1806 13.6268 12.2642C13.5635 12.3427 13.5339 12.477 13.5339 12.6646V13.1166H14.3237V12.6646C14.3237 12.477 14.292 12.3423 14.2293 12.2642C14.1692 12.181 14.0687 12.1407 13.933 12.1407Z" fill="#515151"/>
<path d="M10.8514 12.1255C10.788 12.1255 10.7239 12.1396 10.6623 12.1688C10.5996 12.1972 10.5384 12.2444 10.4779 12.3056V15.0905C10.5496 15.1625 10.6205 15.218 10.6897 15.2497C10.7584 15.2803 10.8297 15.2975 10.9057 15.2975C11.0156 15.2975 11.0955 15.2659 11.147 15.2018C11.1978 15.1384 11.2237 15.0372 11.2237 14.8942V12.5854C11.2237 12.4335 11.1935 12.3197 11.1301 12.2415C11.0645 12.1644 10.9716 12.1255 10.8514 12.1255Z" fill="#515151"/>
<path d="M5.07096 7.18964H6.2032V4.42027L7.52163 0.513611H6.37066L5.66986 3.18215H5.59855L4.86281 0.513611H3.72229L5.07096 4.54487V7.18964Z" fill="#515151"/>
<path d="M9.05578 7.31388C9.51314 7.31388 9.87183 7.19395 10.1333 6.95411C10.3929 6.71318 10.5229 6.38439 10.5229 5.96304V3.41911C10.5229 3.04421 10.39 2.73558 10.1254 2.49754C9.85886 2.26022 9.51746 2.14066 9.10116 2.14066C8.64379 2.14066 8.27971 2.25374 8.00889 2.47953C7.7388 2.70533 7.60303 3.0082 7.60303 3.39102V5.94359C7.60303 6.36242 7.73519 6.69374 7.99917 6.94222C8.26314 7.18963 8.61606 7.31388 9.05578 7.31388ZM8.63875 3.35356C8.63875 3.2466 8.67729 3.16017 8.75255 3.09247C8.8307 3.02621 8.92974 2.99416 9.0529 2.99416C9.18579 2.99416 9.29346 3.02621 9.37557 3.09247C9.45732 3.16017 9.49801 3.2466 9.49801 3.35356V6.03687C9.49801 6.16831 9.45804 6.27275 9.37701 6.34802C9.2967 6.42364 9.18867 6.46074 9.0529 6.46074C8.92001 6.46074 8.81738 6.42472 8.74535 6.3491C8.67441 6.27527 8.63839 6.17155 8.63839 6.03651V3.35356H8.63875Z" fill="#515151"/>
<path d="M12.0416 7.26166C12.2307 7.26166 12.4248 7.20764 12.6247 7.10392C12.8267 6.99877 13.0201 6.84499 13.2041 6.6444V7.18999H14.2099V2.26526H13.2041V6.00338C13.1105 6.11033 13.0064 6.1982 12.8947 6.26807C12.7809 6.33721 12.6873 6.37178 12.6135 6.37178C12.5191 6.37178 12.4496 6.34586 12.4089 6.2922C12.3675 6.2407 12.3441 6.15643 12.3441 6.04083V2.26526H11.3397V6.38115C11.3397 6.67465 11.3988 6.89397 11.5155 7.03946C11.6343 7.18711 11.8079 7.26166 12.0416 7.26166Z" fill="#515151"/>
</svg>

<?xml version="1.0" encoding="utf-8"?>
<!-- Generator: Adobe Illustrator 24.0.1, SVG Export Plug-In . SVG Version: 6.00 Build 0)  -->
<svg version="1.1" id="Layer_1" xmlns="http://www.w3.org/2000/svg" xmlns:xlink="http://www.w3.org/1999/xlink" x="0px" y="0px"
	 viewBox="0 0 19 18" style="enable-background:new 0 0 19 18;" xml:space="preserve">
<path d="M14.8,8.7H3.6c-1.8,0-3.2,1.4-3.2,3.2v2.6c0,1.8,1.4,3.2,3.2,3.2h11.2c1.8,0,3.2-1.4,3.2-3.2V12C18,10.2,16.6,8.7,14.8,8.7z
	 M6,10.8h-1v5.2h-1v-5.2h-1V9.9H6V10.8z M8.9,15.9H8v-0.5c-0.2,0.2-0.3,0.3-0.5,0.4C7.3,16,7.1,16,7,16c-0.2,0-0.4-0.1-0.5-0.2
	c-0.1-0.1-0.2-0.3-0.2-0.6v-3.7h0.9v3.4c0,0.1,0,0.2,0.1,0.2c0,0,0.1,0.1,0.2,0.1c0.1,0,0.1,0,0.2-0.1C7.8,15,7.9,15,8,14.9v-3.4
	h0.9V15.9z M12.1,15c0,0.3-0.1,0.6-0.2,0.7c-0.1,0.2-0.3,0.3-0.6,0.3c-0.2,0-0.3,0-0.5-0.1c-0.1-0.1-0.3-0.2-0.4-0.3v0.3H9.6V9.9
	h0.9v2c0.1-0.1,0.2-0.2,0.4-0.3c0.1-0.1,0.3-0.1,0.4-0.1c0.3,0,0.5,0.1,0.6,0.3c0.1,0.2,0.2,0.5,0.2,0.8L12.1,15L12.1,15z
	 M15.2,13.8h-1.7v0.8c0,0.2,0,0.4,0.1,0.5c0.1,0.1,0.2,0.1,0.3,0.1c0.1,0,0.3,0,0.3-0.1c0.1-0.1,0.1-0.2,0.1-0.5v-0.2h0.9v0.2
	c0,0.5-0.1,0.8-0.3,1c-0.2,0.2-0.6,0.3-1,0.3c-0.4,0-0.7-0.1-0.9-0.4c-0.2-0.2-0.3-0.6-0.3-1v-2c0-0.4,0.1-0.7,0.4-0.9
	c0.3-0.2,0.6-0.4,1-0.4c0.4,0,0.7,0.1,0.9,0.3c0.2,0.2,0.3,0.6,0.3,1V13.8z"/>
<path d="M13.9,12.1c-0.1,0-0.2,0-0.3,0.1c-0.1,0.1-0.1,0.2-0.1,0.4v0.5h0.8v-0.5c0-0.2,0-0.3-0.1-0.4C14.2,12.2,14.1,12.1,13.9,12.1
	z"/>
<path d="M10.9,12.1c-0.1,0-0.1,0-0.2,0c-0.1,0-0.1,0.1-0.2,0.1v2.8c0.1,0.1,0.1,0.1,0.2,0.2c0.1,0,0.1,0,0.2,0c0.1,0,0.2,0,0.2-0.1
	c0.1-0.1,0.1-0.2,0.1-0.3v-2.3c0-0.2,0-0.3-0.1-0.3C11.1,12.2,11,12.1,10.9,12.1z"/>
<path d="M5.1,7.2h1.1V4.4l1.3-3.9H6.4L5.7,3.2H5.6L4.9,0.5H3.7l1.3,4V7.2z"/>
<path d="M9.1,7.3c0.5,0,0.8-0.1,1.1-0.4c0.3-0.2,0.4-0.6,0.4-1V3.4c0-0.4-0.1-0.7-0.4-0.9c-0.3-0.2-0.6-0.4-1-0.4
	C8.6,2.1,8.3,2.3,8,2.5C7.7,2.7,7.6,3,7.6,3.4v2.6c0,0.4,0.1,0.8,0.4,1C8.3,7.2,8.6,7.3,9.1,7.3z M8.6,3.4c0-0.1,0-0.2,0.1-0.3
	C8.8,3,8.9,3,9.1,3c0.1,0,0.2,0,0.3,0.1c0.1,0.1,0.1,0.2,0.1,0.3V6c0,0.1,0,0.2-0.1,0.3C9.3,6.4,9.2,6.5,9.1,6.5
	c-0.1,0-0.2,0-0.3-0.1C8.7,6.3,8.6,6.2,8.6,6L8.6,3.4L8.6,3.4z"/>
<path d="M12,7.3c0.2,0,0.4-0.1,0.6-0.2C12.8,7,13,6.8,13.2,6.6v0.5h1V2.3h-1V6c-0.1,0.1-0.2,0.2-0.3,0.3c-0.1,0.1-0.2,0.1-0.3,0.1
	c-0.1,0-0.2,0-0.2-0.1c0-0.1-0.1-0.1-0.1-0.3V2.3h-1v4.1c0,0.3,0.1,0.5,0.2,0.7C11.6,7.2,11.8,7.3,12,7.3z"/>
</svg>
